X: 1
T: Cucanandy
R: slip jig
M: 9/8
L: 1/8
K: Gmaj
B3 B2A G2A|B2d d2B d2e|B3 B2A G2A|B2e efd e2f|
B3 B2A G2A|B2d d2B d2e|e2B B2A G2A|B2e efd e3||
e2f g2f g2A|B2d d2B d3|e2f gfe dBA|B2e efd ~e3|
e2f g2f g2A|B2d d2B d3|e2B B2A G2A|B2e efd e3||


Tune 1374	Setting 14731

